Papirus/64x64/apps/checkra1n.svg

<?xml version="1.0" encoding="UTF-8" standalone="no"?>
<svg
   id="_图层_1"
   version="1.1"
   viewBox="0 0 64 64" width="64" height="64"
   sodipodi:docname="checkra1n.svg"
   xml:space="preserve"
   inkscape:version="1.4 (e7c3feb100, 2024-10-09)"
   xmlns:inkscape="http://www.inkscape.org/namespaces/inkscape"
   xmlns:sodipodi="http://sodipodi.sourceforge.net/DTD/sodipodi-0.dtd"
   xmlns="http://www.w3.org/2000/svg"
   xmlns:svg="http://www.w3.org/2000/svg"><sodipodi:namedview
     id="namedview26"
     pagecolor="#505050"
     bordercolor="#eeeeee"
     borderopacity="1"
     inkscape:showpageshadow="0"
     inkscape:pageopacity="0"
     inkscape:pagecheckerboard="0"
     inkscape:deskcolor="#505050"
     inkscape:zoom="10.6875"
     inkscape:cx="32"
     inkscape:cy="29.005848"
     inkscape:window-width="1920"
     inkscape:window-height="939"
     inkscape:window-x="0"
     inkscape:window-y="34"
     inkscape:window-maximized="1"
     inkscape:current-layer="_图层_1" /><!-- Generator: Adobe Illustrator 29.0.1, SVG Export Plug-In . SVG Version: 2.1.0 Build 192)  --><defs
     id="defs6"><style
       id="style1">
      .st0 {
        fill-opacity: .5;
      }

      .st0, .st1, .st2, .st3, .st4, .st5, .st6, .st7 {
        fill: #fff;
      }

      .st8 {
        fill: #133c9a;
      }

      .st2, .st9 {
        display: none;
      }

      .st3 {
        fill-opacity: .2;
      }

      .st4 {
        fill-opacity: .9;
      }

      .st10 {
        fill: #3370ff;
      }

      .st11 {
        fill: url(#_未命名的渐变_3);
      }

      .st12 {
        fill: url(#_未命名的渐变);
      }

      .st5 {
        fill-opacity: .3;
      }

      .st6 {
        fill-opacity: 0;
      }

      .st7 {
        fill-opacity: .7;
      }

      .st13 {
        fill: #00d6b9;
      }

      .st14 {
        fill: url(#_未命名的渐变_2);
      }
    </style><radialGradient
       id="_未命名的渐变"
       data-name="未命名的渐变"
       cx="123.9"
       cy="-40.2"
       fx="123.9"
       fy="-40.2"
       r="59.4"
       gradientTransform="translate(-26.8 25.5) scale(.6 -.7)"
       gradientUnits="userSpaceOnUse"><stop
         offset="0"
         stop-color="#db202e"
         id="stop1" /><stop
         offset="1"
         stop-color="#e01b24"
         id="stop2" /></radialGradient><radialGradient
       id="_未命名的渐变_2"
       data-name="未命名的渐变 2"
       cx="67.6"
       cy="26.8"
       fx="67.6"
       fy="26.8"
       r="105.2"
       gradientTransform="translate(-26.6 25.3) scale(.6 -.7)"
       gradientUnits="userSpaceOnUse"><stop
         offset="0"
         stop-color="#ffb648"
         id="stop3" /><stop
         offset="1"
         stop-color="#ff7800"
         stop-opacity="0"
         id="stop4" /></radialGradient><radialGradient
       id="_未命名的渐变_3"
       data-name="未命名的渐变 3"
       cx="61.7"
       cy="18.6"
       fx="61.7"
       fy="18.6"
       r="68"
       gradientTransform="translate(-26.8 25.8) scale(.6 -.7)"
       gradientUnits="userSpaceOnUse"><stop
         offset="0"
         stop-color="#c64600"
         id="stop5" /><stop
         offset="1"
         stop-color="#a51d2d"
         id="stop6" /></radialGradient></defs><path
     class="st1"
     d="M47.5,64.1H13.8c-7.6,0-13.8-6.3-13.8-13.8V13.7C0,6.2,6.2,0,13.7,0h36.6c7.5,0,13.7,6.2,13.7,13.7v36.6c0,7.5-6.2,13.7-13.7,13.7h-2.9.1Z"
     id="path6"
     style="fill:#f9f9f9;fill-opacity:1" /><g
     id="g26"
     transform="matrix(1.0500465,0,0,0.88546081,-3.8146863,3.05122)"><path
       style="opacity:0.2"
       d="m 42.9375,4 c 0,0 -4.940069,0.023003 -8.492188,4.9023438 -3.15877,4.3388772 -2.353515,8.0507812 -2.353515,8.0507812 0,0 4.282851,0.771375 8.050781,-3.947266 C 43.671429,8.5866897 42.9375,4 42.9375,4 Z m 0.05078,14 c -4.681678,0 -8.278836,2.630859 -10.216797,2.630859 -2.257531,0 -5.628283,-2.472656 -9.970703,-2.472656 C 16.121053,18.158203 9,24.064055 9,35.322266 9,46.7652 17.41446,61.000173 24.074219,61 c 2.324686,0 5.893481,-2.867188 9.490234,-2.867188 3.529412,10e-7 6.132715,2.783204 9.482422,2.783204 7.293158,0 12.693359,-15.00586 12.693359,-15.00586 0,0 -7.740234,-2.952814 -7.740234,-11.521484 0,-7.595725 6.216797,-10.726563 6.216797,-10.726563 0,0 -3.169818,-5.662109 -11.228517,-5.662109 z"
       id="path1" /><path
       style="fill:#999999"
       d="m 34.44612,7.9031165 c 3.552118,-4.8793409 8.490411,-4.9031164 8.490411,-4.9031164 0,0 0.734564,4.5873872 -2.794287,9.0065569 -3.76793,4.718641 -8.050702,3.946497 -8.050702,3.946497 0,0 -0.804193,-3.71106 2.354578,-8.0499375 z"
       id="path2" /><path
       style="fill:#999999"
       d="m 32.770998,19.630541 c 1.937961,0 5.534713,-2.630544 10.216391,-2.630544 8.058698,0 11.22898,5.662324 11.22898,5.662324 0,0 -6.216369,3.130417 -6.216369,10.726142 0,8.56867 7.740007,11.52169 7.740007,11.52169 0,0 -5.399463,15.006725 -12.692621,15.006725 -3.349707,0 -5.953935,-2.783548 -9.483347,-2.783548 -3.596753,0 -7.166006,2.866667 -9.490692,2.866667 C 17.413588,60.00017 8.9999996,45.764759 8.9999996,34.321825 8.9999996,23.063614 16.121551,17.158 22.801279,17.158 c 4.34242,0 7.712188,2.472541 9.969719,2.472541 z"
       id="path3" /><path
       style="opacity:0.1"
       d="m 31,24 v 3 h -3 v 3 h 3 v 3 h -1.449219 c -0.816924,0 -1.839947,0.756729 -1.474609,1.5 l 1.474609,3 c 0.281755,0.573219 0.523163,1.15077 0.992188,1.386719 -0.0041,0.03812 -0.01124,0.07524 -0.01563,0.113281 H 28 v 1 h 2.392578 c -0.458891,2.660866 -1.494176,5.102454 -2.921875,7.175781 -0.163104,0.268039 -0.337588,0.579574 -0.384765,0.69336 -0.08574,0.206986 -0.117893,1.00657 -0.04492,1.097656 0.02104,0.02662 2.483024,0.03967 5.458984,0.0293 2.975959,0.0104 5.437933,-0.0027 5.458984,-0.0293 0.07298,-0.09109 0.04082,-0.89067 -0.04492,-1.097656 -0.04718,-0.113786 -0.221661,-0.425321 -0.384765,-0.69336 C 36.1016,45.102454 35.066312,42.660866 34.607422,40 H 37 v -1 h -2.527344 c -0.0044,-0.03804 -0.01148,-0.07516 -0.01563,-0.113281 0.469025,-0.235949 0.710434,-0.8135 0.992188,-1.386719 l 1.474609,-3 C 37.289166,33.756729 36.266143,33 35.449219,33 H 34 v -3 h 3 V 27 H 34 V 24 Z M 25.416016,49 C 24.631182,49 24,49.595318 24,50.333984 v 1.332032 C 24,52.404682 24.631182,53 25.416016,53 H 39.583984 C 40.368818,53 41,52.404682 41,51.666016 V 50.333984 C 41,49.595318 40.368818,49 39.583984,49 Z"
       id="path4" /><path
       style="fill:#3f3f3f"
       d="m 30.652324,36.315506 c -0.07789,3.704443 -1.286149,7.107126 -3.182397,9.860888 -0.163104,0.268039 -0.33686,0.579231 -0.384037,0.693017 -0.08574,0.206986 -0.118621,1.005496 -0.04565,1.096582 0.02104,0.02662 2.483799,0.04098 5.459759,0.03061 2.975959,0.0104 5.438706,-0.004 5.459757,-0.03061 0.07298,-0.09109 0.04009,-0.889596 -0.04565,-1.096582 -0.04718,-0.113786 -0.220941,-0.424978 -0.384045,-0.693017 -1.896246,-2.753762 -3.104516,-6.156445 -3.182397,-9.860888 h -1.847669 z"
       id="path5" /><rect
       style="fill:#3f3f3f"
       width="17"
       height="4"
       x="24"
       y="48"
       rx="1.4170001"
       ry="1.3329999"
       id="rect5" /><path
       style="fill:#3f3f3f"
       d="m 29.550815,32 h 5.89837 c 0.816924,0 1.839931,0.756729 1.474593,1.5 l -1.474593,3 C 35.083847,37.243269 34.791518,38 33.974593,38 h -2.949185 c -0.816924,0 -1.109254,-0.756731 -1.474593,-1.5 l -1.474593,-3 C 27.710884,32.756729 28.733891,32 29.550815,32 Z"
       id="path6-9" /><rect
       style="fill:#3f3f3f"
       width="3"
       height="9"
       x="31"
       y="23"
       id="rect6" /><rect
       style="fill:#3f3f3f"
       width="3"
       height="9"
       x="26"
       y="-37"
       transform="rotate(90)"
       id="rect7" /><rect
       style="fill:#3f3f3f"
       width="9"
       height="1"
       x="28"
       y="38"
       id="rect8" /><path
       style="opacity:0.1;fill:#ffffff"
       d="m 42.9375,3 c 0,0 -4.940069,0.023003 -8.492188,4.9023438 -2.418899,3.3225932 -2.514282,6.2413932 -2.425781,7.4433592 0.0722,-1.485918 0.532815,-3.843186 2.425781,-6.4433592 C 37.997431,4.0230029 42.9375,4 42.9375,4 c 0,0 0.02818,0.2993381 0.04687,0.6367188 C 43.035064,3.6290425 42.9375,3 42.9375,3 Z m 0.05078,14 c -4.681678,0 -8.278836,2.630859 -10.216797,2.630859 -2.257531,0 -5.628283,-2.472656 -9.970703,-2.472656 C 16.121053,17.158203 9,23.064055 9,34.322266 c 0,0.156795 0.018351,0.318762 0.021484,0.476562 0.2218922,-10.910092 7.206234,-16.640625 13.779297,-16.640625 4.34242,0 7.713172,2.472656 9.970703,2.472656 1.937961,0 5.535119,-2.630859 10.216797,-2.630859 6.324106,0 9.604924,3.453979 10.738281,4.955078 0.281162,-0.175418 0.490235,-0.292969 0.490235,-0.292969 0,0 -3.169818,-5.662109 -11.228517,-5.662109 z m 5.039063,16.861328 C 48.020351,34.038537 48,34.206336 48,34.388672 c 0,7.494729 5.921901,10.691007 7.40625,11.375 0.203152,-0.508439 0.333984,-0.853516 0.333984,-0.853516 0,0 -7.427388,-2.854658 -7.712891,-11.048828 z"
       id="path8" /></g></svg>

<svg xmlns="http://www.w3.org/2000/svg" width="64" height="64" version="1">
 <path style="opacity:0.2" d="m 42.9375,4 c 0,0 -4.940069,0.023003 -8.492188,4.9023438 -3.15877,4.3388772 -2.353515,8.0507812 -2.353515,8.0507812 0,0 4.282851,0.771375 8.050781,-3.947266 C 43.671429,8.5866897 42.9375,4 42.9375,4 Z m 0.05078,14 c -4.681678,0 -8.278836,2.630859 -10.216797,2.630859 -2.257531,0 -5.628283,-2.472656 -9.970703,-2.472656 C 16.121053,18.158203 9,24.064055 9,35.322266 9,46.7652 17.41446,61.000173 24.074219,61 c 2.324686,0 5.893481,-2.867188 9.490234,-2.867188 3.529412,10e-7 6.132715,2.783204 9.482422,2.783204 7.293158,0 12.693359,-15.00586 12.693359,-15.00586 0,0 -7.740234,-2.952814 -7.740234,-11.521484 0,-7.595725 6.216797,-10.726563 6.216797,-10.726563 0,0 -3.169818,-5.662109 -11.228516,-5.662109 z"/>
 <path style="fill:#999999" d="m 34.44612,7.9031165 c 3.552118,-4.8793409 8.490411,-4.9031164 8.490411,-4.9031164 0,0 0.734564,4.5873872 -2.794287,9.0065569 -3.76793,4.718641 -8.050702,3.946497 -8.050702,3.946497 0,0 -0.804193,-3.71106 2.354578,-8.0499375 z"/>
 <path style="fill:#999999" d="m 32.770998,19.630541 c 1.937961,0 5.534713,-2.630544 10.216391,-2.630544 8.058698,0 11.22898,5.662324 11.22898,5.662324 0,0 -6.216369,3.130417 -6.216369,10.726142 0,8.56867 7.740007,11.52169 7.740007,11.52169 0,0 -5.399463,15.006725 -12.692621,15.006725 -3.349707,0 -5.953935,-2.783548 -9.483347,-2.783548 -3.596753,0 -7.166006,2.866667 -9.490692,2.866667 C 17.413588,60.00017 8.9999996,45.764759 8.9999996,34.321825 8.9999996,23.063614 16.121551,17.158 22.801279,17.158 c 4.34242,0 7.712188,2.472541 9.969719,2.472541 z"/>
 <path style="opacity:0.1" d="m 31,24 v 3 h -3 v 3 h 3 v 3 h -1.449219 c -0.816924,0 -1.839947,0.756729 -1.474609,1.5 l 1.474609,3 c 0.281755,0.573219 0.523163,1.15077 0.992188,1.386719 -0.0041,0.03812 -0.01124,0.07524 -0.01563,0.113281 H 28 v 1 h 2.392578 c -0.458891,2.660866 -1.494176,5.102454 -2.921875,7.175781 -0.163104,0.268039 -0.337588,0.579574 -0.384765,0.69336 -0.08574,0.206986 -0.117893,1.00657 -0.04492,1.097656 0.02104,0.02662 2.483024,0.03967 5.458984,0.0293 2.975959,0.0104 5.437933,-0.0027 5.458984,-0.0293 0.07298,-0.09109 0.04082,-0.89067 -0.04492,-1.097656 -0.04718,-0.113786 -0.221661,-0.425321 -0.384765,-0.69336 C 36.1016,45.102454 35.066312,42.660866 34.607422,40 H 37 v -1 h -2.527344 c -0.0044,-0.03804 -0.01148,-0.07516 -0.01563,-0.113281 0.469025,-0.235949 0.710434,-0.8135 0.992188,-1.386719 l 1.474609,-3 C 37.289166,33.756729 36.266143,33 35.449219,33 H 34 v -3 h 3 V 27 H 34 V 24 Z M 25.416016,49 C 24.631182,49 24,49.595318 24,50.333984 v 1.332032 C 24,52.404682 24.631182,53 25.416016,53 H 39.583984 C 40.368818,53 41,52.404682 41,51.666016 V 50.333984 C 41,49.595318 40.368818,49 39.583984,49 Z"/>
 <path style="fill:#3f3f3f" d="m 30.652324,36.315506 c -0.07789,3.704443 -1.286149,7.107126 -3.182397,9.860888 -0.163104,0.268039 -0.33686,0.579231 -0.384037,0.693017 -0.08574,0.206986 -0.118621,1.005496 -0.04565,1.096582 0.02104,0.02662 2.483799,0.04098 5.459759,0.03061 2.975959,0.0104 5.438706,-0.004 5.459757,-0.03061 0.07298,-0.09109 0.04009,-0.889596 -0.04565,-1.096582 -0.04718,-0.113786 -0.220941,-0.424978 -0.384045,-0.693017 -1.896246,-2.753762 -3.104516,-6.156445 -3.182397,-9.860888 h -1.847669 z"/>
 <rect style="fill:#3f3f3f" width="17" height="4" x="24" y="48" rx="1.417" ry="1.333"/>
 <path style="fill:#3f3f3f" d="m 29.550815,32 h 5.89837 c 0.816924,0 1.839931,0.756729 1.474593,1.5 l -1.474593,3 C 35.083847,37.243269 34.791518,38 33.974593,38 h -2.949185 c -0.816924,0 -1.109254,-0.756731 -1.474593,-1.5 l -1.474593,-3 C 27.710884,32.756729 28.733891,32 29.550815,32 Z"/>
 <rect style="fill:#3f3f3f" width="3" height="9" x="31" y="23"/>
 <rect style="fill:#3f3f3f" width="3" height="9" x="26" y="-37" transform="rotate(90)"/>
 <rect style="fill:#3f3f3f" width="9" height="1" x="28" y="38"/>
 <path style="fill:#ffffff;opacity:0.1" d="M 42.9375 3 C 42.9375 3 37.997431 3.0230029 34.445312 7.9023438 C 32.026413 11.224937 31.93103 14.143737 32.019531 15.345703 C 32.091735 13.859785 32.552346 11.502517 34.445312 8.9023438 C 37.997431 4.0230029 42.9375 4 42.9375 4 C 42.9375 4 42.96568 4.2993381 42.984375 4.6367188 C 43.035064 3.6290425 42.9375 3 42.9375 3 z M 42.988281 17 C 38.306603 17 34.709445 19.630859 32.771484 19.630859 C 30.513953 19.630859 27.143201 17.158203 22.800781 17.158203 C 16.121053 17.158203 9 23.064055 9 34.322266 C 9 34.479061 9.0183508 34.641028 9.0214844 34.798828 C 9.2433766 23.888736 16.227718 18.158203 22.800781 18.158203 C 27.143201 18.158203 30.513953 20.630859 32.771484 20.630859 C 34.709445 20.630859 38.306603 18 42.988281 18 C 49.312387 18 52.593205 21.453979 53.726562 22.955078 C 54.007724 22.77966 54.216797 22.662109 54.216797 22.662109 C 54.216797 22.662109 51.046979 17 42.988281 17 z M 48.027344 33.861328 C 48.020351 34.038537 48 34.206336 48 34.388672 C 48 41.883401 53.921901 45.079679 55.40625 45.763672 C 55.609402 45.255233 55.740234 44.910156 55.740234 44.910156 C 55.740234 44.910156 48.312846 42.055498 48.027344 33.861328 z"/>
</svg>
